X: 4
T: Heilini sinisist\"a silmist\"a
T: At the jenkka show
C: Georg Malmsten 1957
C: sanat: Reino Ranta
R: shottish, jenkka
M: 4/4
L: 1/8
P: AABACA
%%staffsep 40
K: Gm
"Intro"\
| "D7"D2 ^FA dA Bc | "Gm"B2 G2 G2 ^FG | "D7"A2 D2 B2 A2 | "Gm"G4 G2 z2 \
"A"\
|: "Gm"B2 AG "D7"^FG AF | "Gm"G2 D2 D2 ^CD \
| "Cm"F2 E2 B,2 C2 | "Gm"D4 D2 z2 |
|  "D7"D2 ^FA dA Bc | "Gm"B2 G2 G2 ^FG \
|1,3 "A7"A2 G2 ^F2 G2 | "D7"A4 D2 z2 \
:|2  "D7"A2 D2  B2 A2 | "Gm"G4 G2 "fine"z2 \
:|4  "D7"A2 D2  B2 A2 | "Gm"G4 GD E=E |
"B"\
[| "F7"F2 A4 G2 | F>G E>F D2 C2 | "Bb"B,D FB A2 G2 | F8 \
| "F7"E4- ED CD | E4- EG BA | "Bb"D4- DC B,D | F4- FD E=E |
| "F7"F2 A4 G2 | F>G E>F D2 C2 | "Gdim"B,^C =EG B^c =eg | b2 z2 kg4 \
| "F7"f2 a4 g2 | f>g e>f d2 c2 | "Bb"B2 B,2 C2 ^C2 | "D7"D2 DE "d.C"D4 |]
K: Eb"
"C"\
[| "Eb"G4- G>A =A>B | c2 B2 =A2 _A2 | G4- G>B, G>A | "Bb7"G4 F4 \
| A4- A>B c>d | f2 e2 d2 c2 | "Eb"B2 =A2 "Bb7"_A2 F2 | "Eb"G2 B,2 C2 B,2 |
| "Eb"G4- G>A =A>B | "G7"g2 f2 e2 d2 | "Ab"c4- c>d c>d | "Eb"c4 B4 \
| "Bb7"B4- B>c d>c | B2 =A2 _A2 D2 | "Eb"E2 B,2 C2 D2 | E2 C2 "D7"D2 z2 "->A"|]
%%sep 1 1 10cm
